assets/icons/24px/stroke/email-24px.svg

<svg width="24" height="24" viewBox="0 0 24 24" fill="none" xmlns="http://www.w3.org/2000/svg">
<path fill-rule="evenodd" clip-rule="evenodd" d="M16 6H8C6.52925 6 5.62738 6.00425 4.97468 6.092C4.40099 6.16913 4.3052 6.27883 4.29383 6.29185C4.29341 6.29233 4.2931 6.29268 4.29289 6.29289C4.29268 6.2931 4.29233 6.29341 4.29185 6.29383C4.27883 6.3052 4.16913 6.40099 4.092 6.97468C4.00425 7.62738 4 8.52925 4 10V14C4 15.4708 4.00425 16.3726 4.092 17.0253C4.16913 17.599 4.27883 17.6948 4.29185 17.7062C4.29233 17.7066 4.29268 17.7069 4.29289 17.7071C4.2931 17.7073 4.29341 17.7077 4.29383 17.7082C4.3052 17.7212 4.40098 17.8309 4.97468 17.908C5.62738 17.9958 6.52925 18 8 18H16C17.4708 18 18.3726 17.9958 19.0253 17.908C19.599 17.8309 19.6948 17.7212 19.7062 17.7082C19.7066 17.7077 19.7069 17.7073 19.7071 17.7071C19.7073 17.7069 19.7077 17.7066 19.7082 17.7062C19.7212 17.6948 19.8309 17.599 19.908 17.0253C19.9958 16.3726 20 15.4708 20 14V10C20 8.52925 19.9958 7.62738 19.908 6.97468C19.8309 6.401 19.7212 6.3052 19.7082 6.29384C19.7077 6.29341 19.7073 6.2931 19.7071 6.29289C19.7069 6.29268 19.7066 6.29233 19.7062 6.29185C19.6948 6.27883 19.599 6.16913 19.0253 6.092C18.3726 6.00425 17.4708 6 16 6ZM2.87868 4.87868C2 5.75736 2 7.17157 2 10V14C2 16.8284 2 18.2426 2.87868 19.1213C3.75736 20 5.17157 20 8 20H16C18.8284 20 20.2426 20 21.1213 19.1213C22 18.2426 22 16.8284 22 14V10C22 7.17157 22 5.75736 21.1213 4.87868C20.2426 4 18.8284 4 16 4H8C5.17157 4 3.75736 4 2.87868 4.87868Z" fill="white"/>
<path fill-rule="evenodd" clip-rule="evenodd" d="M3.40002 6.79995L4.60002 5.19995L10.2 9.39995C10.7968 9.8475 11.1763 10.1302 11.4864 10.3107C11.7738 10.478 11.9082 10.5 12 10.5C12.0919 10.5 12.2263 10.478 12.5136 10.3107C12.8237 10.1302 13.2033 9.8475 13.8 9.39995L19.4 5.19995L20.6 6.79995L14.9568 11.0324C14.416 11.438 13.9429 11.7929 13.5198 12.0392C13.0626 12.3053 12.5748 12.5 12 12.5C11.4252 12.5 10.9374 12.3053 10.4803 12.0392C10.0572 11.7929 9.58401 11.438 9.04324 11.0324L3.40002 6.79995Z" fill="white"/>
</svg>

<svg width="24" height="24" fill="none" xmlns="http://www.w3.org/2000/svg"><path fill-rule="evenodd" clip-rule="evenodd" d="M16 6H8c-1.47 0-2.373.004-3.025.092-.574.077-.67.187-.681.2a.025.025 0 0 1-.002.002c-.013.011-.123.107-.2.68C4.004 7.628 4 8.53 4 10v4c0 1.47.004 2.373.092 3.025.077.574.187.67.2.681v.001l.002.001c.011.013.107.123.68.2C5.628 17.996 6.53 18 8 18h8c1.47 0 2.373-.004 3.025-.092.574-.077.67-.187.681-.2h.001l.001-.002c.013-.011.123-.107.2-.68.088-.653.092-1.555.092-3.026v-4c0-1.47-.004-2.373-.092-3.025-.077-.574-.187-.67-.2-.681v-.001l-.002-.001c-.011-.013-.107-.123-.68-.2C18.372 6.004 17.47 6 16 6zM2.879 4.879C2 5.757 2 7.172 2 10v4c0 2.828 0 4.243.879 5.121C3.757 20 5.172 20 8 20h8c2.828 0 4.243 0 5.121-.879C22 18.243 22 16.828 22 14v-4c0-2.828 0-4.243-.879-5.121C20.243 4 18.828 4 16 4H8c-2.828 0-4.243 0-5.121.879z" fill="#fff"/><path fill-rule="evenodd" clip-rule="evenodd" d="M3.4 6.8l1.2-1.6 5.6 4.2c.597.447.976.73 1.286.91.288.168.422.19.514.19.092 0 .226-.022.514-.19.31-.18.69-.463 1.286-.91l5.6-4.2 1.2 1.6-5.643 4.232c-.541.406-1.014.76-1.437 1.007-.457.266-.945.461-1.52.461-.575 0-1.063-.195-1.52-.46-.423-.247-.896-.602-1.437-1.008L3.4 6.8z" fill="#fff"/></svg>
